dist/img/main/medal.svg

<svg min-width="48" min-height="48" viewBox="0 0 48 48" fill="none" xmlns="http://www.w3.org/2000/svg">
<g clip-path="url(#clip0_68_8629)">
<path d="M24.5636 20.5396H14.77L9.13668 10.4634C8.77015 9.80788 9.24403 9 9.99509 9H17.2527C17.7833 9 18.2725 9.28694 18.5315 9.75012L24.5636 20.5396Z" fill="url(#paint0_linear_68_8629)"/>
<path d="M18.5312 9.75012C18.2723 9.28694 17.7831 9 17.2524 9H14.2269C14.7576 9 15.2468 9.28694 15.5058 9.75012L21.5378 20.5396H24.5633L18.5312 9.75012Z" fill="#084D5B"/>
<path d="M18.5317 9.75012C18.2728 9.28694 17.7836 9 17.2529 9H14.8988C15.4295 9 15.9186 9.28694 16.1776 9.75012L22.2097 20.5396H24.5638L18.5317 9.75012Z" fill="#084D5B"/>
<path d="M10.829 9H9.99509C9.24403 9 8.77015 9.80788 9.13668 10.4634L14.77 20.5396H18.1399L12.1078 9.75012C11.8489 9.28694 11.3597 9 10.829 9V9Z" fill="#084D5B"/>
<path d="M23.4277 20.5393L33.2213 20.547L38.8624 10.4751C39.2294 9.81984 38.7561 9.01161 38.0051 9.01102L30.7476 9.00537C30.2169 9.00496 29.7275 9.29155 29.4682 9.75449L23.4277 20.5393Z" fill="url(#paint1_linear_68_8629)"/>
<path d="M38.005 9.01123H35.6509C36.402 9.01182 36.8753 9.82005 36.5082 10.4753L30.8681 20.5453L33.2212 20.5471L38.8623 10.4753C39.2293 9.82 38.7561 9.01182 38.005 9.01123Z" fill="url(#paint2_linear_68_8629)"/>
<path d="M33.773 9.0087L30.7475 9.00635C30.2169 9.00594 29.7275 9.29252 29.4681 9.75552L23.4277 20.5402L26.4531 20.5426L32.4937 9.75782C32.753 9.29482 33.2424 9.00829 33.773 9.0087Z" fill="#084D5B"/>
<path d="M38.0056 9.0109L37.1717 9.01025C36.641 9.00984 36.1516 9.29643 35.8923 9.75937L29.8518 20.5441L33.2217 20.5468L38.8628 10.475C39.2299 9.81967 38.7566 9.01149 38.0056 9.0109Z" fill="url(#paint3_linear_68_8629)"/>
<path d="M24.0103 39.0002C30.4832 39.0002 35.7304 33.7529 35.7304 27.2801C35.7304 20.8073 30.4832 15.5601 24.0103 15.5601C17.5375 15.5601 12.2903 20.8073 12.2903 27.2801C12.2903 33.7529 17.5375 39.0002 24.0103 39.0002Z" fill="url(#paint4_linear_68_8629)"/>
<path d="M24.0105 35.558C28.5824 35.558 32.2885 31.8518 32.2885 27.28C32.2885 22.7081 28.5824 19.002 24.0105 19.002C19.4387 19.002 15.7325 22.7081 15.7325 27.28C15.7325 31.8518 19.4387 35.558 24.0105 35.558Z" fill="url(#paint5_linear_68_8629)"/>
<path d="M24.2399 20.5415C24.0378 20.5415 23.8539 20.5783 23.7068 20.6702L21.2799 22.1411C20.9122 22.3617 20.7467 22.7294 20.7467 23.1156C20.7467 23.6855 21.1144 24.2554 21.6476 24.2554C21.7763 24.2554 21.9418 24.2187 22.1073 24.1084L22.6405 23.7774V33.1359C22.6405 33.7242 23.3575 34.0184 24.0745 34.0184C24.7916 34.0184 25.5086 33.7242 25.5086 33.1359V21.4424C25.5086 20.8909 24.8283 20.5415 24.2399 20.5415Z" fill="#084D5B"/>
</g>
<defs>
<linearGradient id="paint0_linear_68_8629" x1="13.3381" y1="14.7698" x2="18.5136" y2="14.7698" gradientUnits="userSpaceOnUse">
<stop stop-color="#F9F3F1"/>
<stop offset="0.5725" stop-color="#EFE2DD"/>
<stop offset="1" stop-color="#CDBFBA"/>
</linearGradient>
<linearGradient id="paint1_linear_68_8629" x1="28.8335" y1="14.7762" x2="37.3149" y2="14.7762" gradientUnits="userSpaceOnUse">
<stop stop-color="#F9F3F1"/>
<stop offset="0.5725" stop-color="#EFE2DD"/>
<stop offset="1" stop-color="#CDBFBA"/>
</linearGradient>
<linearGradient id="paint2_linear_68_8629" x1="28.4719" y1="14.7792" x2="35.0284" y2="14.7792" gradientUnits="userSpaceOnUse">
<stop stop-color="#F9F3F1"/>
<stop offset="0.5725" stop-color="#EFE2DD"/>
<stop offset="1" stop-color="#CDBFBA"/>
</linearGradient>
<linearGradient id="paint3_linear_68_8629" x1="24.6575" y1="14.7785" x2="39.7242" y2="14.7785" gradientUnits="userSpaceOnUse">
<stop stop-color="#084D5B"/>
</linearGradient>
<linearGradient id="paint4_linear_68_8629" x1="11.7388" y1="27.2801" x2="37.9236" y2="27.2801" gradientUnits="userSpaceOnUse">
<stop stop-color="#084D5B"/>
</linearGradient>
<linearGradient id="paint5_linear_68_8629" x1="24.0105" y1="19.002" x2="24.0105" y2="35.558" gradientUnits="userSpaceOnUse">
<stop stop-color="#FFD263"/>
<stop offset="1" stop-color="#FEB137"/>
</linearGradient>
<clipPath id="clip0_68_8629">
<rect width="30" height="30" fill="white" transform="translate(9 9)"/>
</clipPath>
</defs>
</svg>

<svg viewBox="0 0 48 48" fill="none" xmlns="http://www.w3.org/2000/svg"><g clip-path="url(#clip0_68_8629)"><path d="M24.564 20.54H14.77L9.137 10.463A.983.983 0 019.995 9h7.258c.53 0 1.02.287 1.279.75l6.032 10.79z" fill="url(#paint0_linear_68_8629)"/><path d="M18.531 9.75A1.465 1.465 0 0017.252 9h-3.025c.53 0 1.02.287 1.279.75l6.032 10.79h3.025L18.531 9.75z" fill="#084D5B"/><path d="M18.532 9.75a1.465 1.465 0 00-1.28-.75H14.9c.53 0 1.02.287 1.279.75l6.032 10.79h2.354L18.532 9.75zM10.829 9h-.834a.983.983 0 00-.858 1.463L14.77 20.54h3.37L12.108 9.75A1.465 1.465 0 0010.829 9z" fill="#084D5B"/><path d="M23.428 20.54l9.793.007 5.641-10.072a.984.984 0 00-.857-1.464l-7.257-.006c-.531 0-1.02.287-1.28.75l-6.04 10.784z" fill="url(#paint1_linear_68_8629)"/><path d="M38.005 9.011h-2.354a.983.983 0 01.857 1.464l-5.64 10.07 2.353.002 5.641-10.072a.983.983 0 00-.857-1.464z" fill="url(#paint2_linear_68_8629)"/><path d="M33.773 9.009l-3.026-.003c-.53 0-1.02.287-1.279.75l-6.04 10.784 3.025.003 6.04-10.785c.26-.463.75-.75 1.28-.75z" fill="#084D5B"/><path d="M38.006 9.01h-.834c-.531 0-1.02.286-1.28.75l-6.04 10.784 3.37.003 5.64-10.072a.983.983 0 00-.856-1.464z" fill="url(#paint3_linear_68_8629)"/><path d="M24.01 39c6.473 0 11.72-5.247 11.72-11.72 0-6.473-5.247-11.72-11.72-11.72-6.473 0-11.72 5.247-11.72 11.72 0 6.473 5.248 11.72 11.72 11.72z" fill="url(#paint4_linear_68_8629)"/><path d="M24.01 35.558a8.278 8.278 0 100-16.556 8.278 8.278 0 000 16.556z" fill="url(#paint5_linear_68_8629)"/><path d="M24.24 20.541a.998.998 0 00-.533.13l-2.427 1.47c-.368.22-.533.588-.533.975 0 .57.367 1.14.9 1.14a.836.836 0 00.46-.148l.534-.33v9.358c0 .588.717.882 1.434.882s1.434-.294 1.434-.882V21.442c0-.551-.68-.9-1.27-.9z" fill="#084D5B"/></g><defs><linearGradient id="paint0_linear_68_8629" x1="13.338" y1="14.77" x2="18.514" y2="14.77" gradientUnits="userSpaceOnUse"><stop stop-color="#F9F3F1"/><stop offset=".573" stop-color="#EFE2DD"/><stop offset="1" stop-color="#CDBFBA"/></linearGradient><linearGradient id="paint1_linear_68_8629" x1="28.834" y1="14.776" x2="37.315" y2="14.776" gradientUnits="userSpaceOnUse"><stop stop-color="#F9F3F1"/><stop offset=".573" stop-color="#EFE2DD"/><stop offset="1" stop-color="#CDBFBA"/></linearGradient><linearGradient id="paint2_linear_68_8629" x1="28.472" y1="14.779" x2="35.028" y2="14.779" gradientUnits="userSpaceOnUse"><stop stop-color="#F9F3F1"/><stop offset=".573" stop-color="#EFE2DD"/><stop offset="1" stop-color="#CDBFBA"/></linearGradient><linearGradient id="paint3_linear_68_8629" x1="24.657" y1="14.778" x2="39.724" y2="14.778" gradientUnits="userSpaceOnUse"><stop stop-color="#084D5B"/></linearGradient><linearGradient id="paint4_linear_68_8629" x1="11.739" y1="27.28" x2="37.924" y2="27.28" gradientUnits="userSpaceOnUse"><stop stop-color="#084D5B"/></linearGradient><linearGradient id="paint5_linear_68_8629" x1="24.011" y1="19.002" x2="24.011" y2="35.558" gradientUnits="userSpaceOnUse"><stop stop-color="#FFD263"/><stop offset="1" stop-color="#FEB137"/></linearGradient><clipPath id="clip0_68_8629"><path fill="#fff" transform="translate(9 9)" d="M0 0h30v30H0z"/></clipPath></defs></svg>
